!!!!SEGMENT: Any2012-Eripe_me_Domine--Newberry_Partbooks.krn
!!!id: Any2012
!!!AGN: Motet
!!!voices: 5
!!!COM: Anonymous
!!!SMS: Newberry Partbooks
!!!OTL: Eripe me, Domine (Newberry Partbooks)
**kern	**kern	**kern	**kern	**kern
*part5	*part4	*part3	*part2	*part1
*staff5	*staff4	*staff3	*staff2	*staff1
*I"Bassus	*I"Tenor II	*I"Tenor I	*I"Altus	*I"Superius
*I'B	*I'T. II	*I'T. I	*I'A	*I'S
*clefF4	*clefGv2	*clefGv2	*clefG2	*clefG2
*k[]	*k[]	*k[]	*k[]	*k[]
*C:	*C:	*C:	*C:	*C:
*M2/1	*M2/1	*M2/1	*M2/1	*M2/1
*met(C|)	*met(C|)	*met(C|)	*met(C|)	*met(C|)
!!section: Prima pars: Eripe me, Domine
!!!OMD: Prima pars: Eripe me, Domine
=1	=1	=1	=1	=1
0r	0E	0r	0r	0r
=2	=2	=2	=2	=2
0r	1G	0r	0r	0r
.	1A	.	.	.
=3	=3	=3	=3	=3
0r	1A	0r	0r	0e
.	[1c	.	.	.
=4	=4	=4	=4	=4
0r	2c]	0r	0r	1g
.	2B	.	.	.
.	2A	.	.	1a
.	[2c	.	.	.
=5	=5	=5	=5	=5
0r	4c]	0r	0A	1a
.	4B	.	.	.
.	4A	.	.	.
.	4G	.	.	.
.	1F	.	.	1r
=6	=6	=6	=6	=6
0r	1A	0r	1c	1.cc
.	[1G	.	1d	.
.	.	.	.	4b
.	.	.	.	4a
=7	=7	=7	=7	=7
0r	1G]	1r	1d	2b
.	.	.	.	2b
.	1F	[1D	1r	1a
=8	=8	=8	=8	=8
0r	1r	1D]	1.f	1.a
.	[1c	1F	.	.
.	.	.	2e	2a
=9	=9	=9	=9	=9
0r	2c]	1G	2.d	0g
.	4B	.	.	.
.	4A	.	4c	.
.	2B	1G	1d	.
.	2B	.	.	.
=10	=10	=10	=10	=10
0AA	2.A	1.c	1e	1r
.	8GL	.	.	.
.	8FJ	.	.	.
.	[1E	.	[1e	[1cc
.	.	2B	.	.
=11	=11	=11	=11	=11
1C	1E]	2A	2e]	2cc]
.	.	2G	2e	2b
1D	1r	1F	2.f	2a
.	.	.	.	2g
.	.	.	4e	.
=12	=12	=12	=12	=12
1D	1.A	1r	2.d	1f
.	.	.	8cL	.
.	.	.	8BJ	.
[1F	.	[1D	1A	[1a
.	2A	.	.	.
=13	=13	=13	=13	=13
2F]	0A	2D]	1.f	2a]
2E	.	2E	.	2a
2D	.	4F	.	1a
.	.	4G	.	.
2C	.	[2A	2e	.
=14	=14	=14	=14	=14
1BB	2D	2A]	1d	1b
.	2D	2G#i	.	.
[1AA	[1E	[1A	[1c	[1cc
=15	=15	=15	=15	=15
0AA;]	0E;]	0A;]	0c;]	2cc]
.	.	.	.	4b
.	.	.	.	4a
.	.	.	.	1a;
=16	=16	=16	=16	=16
0r	0r	0r	1d	1r
.	.	.	2d	1a
.	.	.	2d	.
=17	=17	=17	=17	=17
0r	0r	0r	1c	2a
.	.	.	.	2a
.	.	.	1e	1g
=18	=18	=18	=18	=18
1r	0r	0r	1.d	1b
1D	.	.	.	[1a
.	.	.	2d	.
=19	=19	=19	=19	=19
2D	0r	1A	1f	1a]
2D	.	.	.	.
2C	.	2A	2e	1r
2D	.	2A	[2d	.
=20	=20	=20	=20	=20
1E	0r	1G	2d]	1r
.	.	.	2c	.
2D	.	1B	2.d	1f
2D	.	.	.	.
.	.	.	8cL	.
.	.	.	8BJ	.
=21	=21	=21	=21	=21
2D	2r	1A	2A	2f
2D	2A	.	2F	2f
[1C	2A	1r	[1c	[1e
.	2A	.	.	.
=22	=22	=22	=22	=22
1C]	1G	0r	1c]	1e]
1GG	1B	.	1d	1g
=23	=23	=23	=23	=23
1D	1A	1r	1d	1f
2E	2G	2r	2B	1e
2C	2E	[2A	[2e	.
=24	=24	=24	=24	=24
1D	1F	2A]	4e]	1.a
.	.	.	4d	.
.	.	2A	4d	.
.	.	.	8cL	.
.	.	.	8dJ	.
[1AA	2E	1c	[1e	.
.	[2c	.	.	2b
=25	=25	=25	=25	=25
1AA]	4c]	2A	1e]	1cc
.	4B	.	.	.
.	4A	2.c	.	.
.	4G	.	.	.
1r	1F	.	[1c	2a
.	.	4B	.	.
.	.	4A	.	[2cc
.	.	4G	.	.
=26	=26	=26	=26	=26
0r	0r	1F	2c]	2cc]
.	.	.	2d	4b
.	.	.	.	4a
.	.	1c	1e	2g
.	.	.	.	2cc
=27	=27	=27	=27	=27
1.D	0r	4d	2f	4b
.	.	4c	.	4a
.	.	4B	1f	1a
.	.	4A	.	.
.	.	1B	.	.
2E	.	.	4e	2g#i
.	.	.	4d	.
=28	=28	=28	=28	=28
1F	0r	1A	2c	[0a
.	.	.	2c	.
2D	.	2F	2d	.
[2F	.	[2A	2c	.
=29	=29	=29	=29	=29
4F]	1.A	4A]	1.f	0a_
4E	.	4G	.	.
4D	.	4F	.	.
4C	.	4E	.	.
1D	.	1F	.	.
.	2B	.	4e	.
.	.	.	4d	.
=30	=30	=30	=30	=30
[0AA	1c	0E	0e	0a]
.	2A	.	.	.
.	[2c	.	.	.
=31	=31	=31	=31	=31
0AA]	4c]	2r	1r	2r
.	4B	.	.	.
.	4A	1E	.	1cc
.	4G	.	.	.
.	1A	.	2r	.
.	.	2E	2e	2cc
=32	=32	=32	=32	=32
2r	1E	0G	2.e	1.b
1E	.	.	.	.
.	.	.	8dL	.
.	.	.	8cJ	.
.	1r	.	2.B	.
2E	.	.	.	[2g
.	.	.	4c	.
=33	=33	=33	=33	=33
1D	2r	2A	1d	2g]
.	1A	2F	.	2f
[1C	.	[1c	2r	1e
.	2A	.	[2e	.
=34	=34	=34	=34	=34
2C]	2.G	2c]	2e]	1r
2C	.	2c	2e	.
.	8FL	.	.	.
.	8EJ	.	.	.
2D	1F	[1A	1d	2r
2D	.	.	.	[2a
=35	=35	=35	=35	=35
1AA	2E	1A]	2.c	2a]
.	1E	.	.	2a
.	.	.	8BL	.
.	.	.	8AJ	.
1r	.	1r	2B	1g
.	2E	.	2c	.
=36	=36	=36	=36	=36
1r	4D	1r	1d	1f
.	4E	.	.	.
.	4F	.	.	.
.	4G	.	.	.
2r	1A	2r	[1c	[1e
[2AA	.	[2A	.	.
=37	=37	=37	=37	=37
2AA]	0r	2A]	2c]	2e]
2D	.	2A	2d	2.f
2E	.	2.G	2B	.
.	.	.	.	4e
2C	.	.	2c	[2e
.	.	8FL	.	.
.	.	8EJ	.	.
=38	=38	=38	=38	=38
1D	2r	1F	2.A	2e]
.	2D	.	.	2d
.	.	.	4B	.
[1AA	2.A	[1E	1c	[1e
.	4B	.	.	.
=39	=39	=39	=39	=39
2AA]	2c	1E]	1A	0e]
2AA	2c	.	.	.
2.E	2B	1r	1G	.
.	2G	.	.	.
4F	.	.	.	.
=40	=40	=40	=40	=40
2G	2.B	0r	0r	1r
2G	.	.	.	.
.	4c	.	.	.
2F	1d	.	.	2r
2D	.	.	.	2d
=41	=41	=41	=41	=41
2.F	1.c	0r	2r	2.a
.	.	.	2A	.
4G	.	.	.	4b
1A	.	.	2.e	2cc
.	4B	.	.	2cc
.	4A	.	4f	.
=42	=42	=42	=42	=42
1E	4G	1r	2g	2b
.	4A	.	.	.
.	4B	.	2g	2g
.	4c	.	.	.
1r	1d	2r	4f	2.b
.	.	.	4e	.
.	.	2G	4d	.
.	.	.	4c	4cc
=43	=43	=43	=43	=43
0r	0r	2.B	1d	1dd
.	.	4c	.	.
.	.	2d	2r	1a
.	.	2A	2c	.
=44	=44	=44	=44	=44
2r	2r	1c	2.e	0r
2C	1G	.	.	.
.	.	.	4f	.
2.E	.	[1B	1g	.
.	[2B	.	.	.
4F	.	.	.	.
=45	=45	=45	=45	=45
2G	4B]	1B]	2d	0r
.	4c	.	.	.
2D	1d	.	2.f	.
1F	.	1A	.	.
.	.	.	4e	.
.	2A	.	4c	.
.	.	.	4d	.
=46	=46	=46	=46	=46
1E	2c	2r	4e	2r
.	.	.	4f	.
.	2.B	2G	4g	2g
.	.	.	4e	.
2D	.	4F	2f	2b
.	4A	4G	.	.
2C	[2A	2A	2e	2cc
=47	=47	=47	=47	=47
1BB	2A]	1D	1d	2dd
.	2G#i	.	.	2b
1AA	1A	1E	2c	2.cc
.	.	.	[2e	.
.	.	.	.	4b
=48	=48	=48	=48	=48
1D	2r	1F	4e]	4a
.	.	.	4d	4g
.	2d	.	2f	2a
1E	2B	2G	4f	2g
.	.	.	4e	.
.	2G	2E	[2e	[2b
=49	=49	=49	=49	=49
1F	1A	2A	2e]	4b]
.	.	.	.	4a
.	.	2D	2d	1a
1E	1B	2.G	1e	.
.	.	.	.	2g#i
.	.	4F	.	.
=50	=50	=50	=50	=50
0AA	[0A	4E	2c	0a
.	.	4D	.	.
.	.	2F	2.d	.
.	.	1E	.	.
.	.	.	4c#i	.
.	.	.	4c#i	.
.	.	.	8BL	.
.	.	.	8c#iJ	.
=51	=51	=51	=51	=51
2r	0A]	1D	1d	2r
2D	.	.	.	2f
[1D	.	1r	2r	[1f
.	.	.	2d	.
=52	=52	=52	=52	=52
1D]	2r	0r	1d	1f]
.	2A	.	.	.
1F	1A	.	1c	1f
=53	=53	=53	=53	=53
0C	0G	2r	0c	1e
.	.	2G	.	.
.	.	[1c	.	2r
.	.	.	.	2g
=54	=54	=54	=54	=54
0r	0F	2c]	1c	1.cc
.	.	2B	.	.
.	.	2A	[1f	.
.	.	2G	.	2b
=55	=55	=55	=55	=55
0r	0r	2F	2f]	2a
.	.	2C	2e	2g
.	.	2D	2d	2f
.	.	2E	2c	2e
=56	=56	=56	=56	=56
0r	1r	2F	2c	1d
.	.	2G	2B	.
.	[1G	1C	[1c	[1e
=57	=57	=57	=57	=57
0C	1G]	1r	0c]	0e]
.	[1c	1G	.	.
=58	=58	=58	=58	=58
1.F	2c]	2.A	2r	0r
.	2B	.	2c	.
.	.	4B	.	.
.	2A	1c	[1f	.
2E	2G	.	.	.
=59	=59	=59	=59	=59
2D	2F	2A	2f]	0r
2C	2G	2c	2e	.
2D	2F	2B	2d	.
2AA	[2E	[2A	2c	.
=60	=60	=60	=60	=60
2BB	4E]	4A]	1.d	0r
.	4D	4G	.	.
2GG	2.G	2G	.	.
1D	.	1A	.	.
.	4F#i	.	.	.
.	4F#i	.	2d	.
.	8EL	.	.	.
.	8F#iJ	.	.	.
=61	=61	=61	=61	=61
[0GG	1G	0B	1d	2r
.	.	.	.	2g
.	2r	.	1r	2g
.	2G	.	.	2g
=62	=62	=62	=62	=62
1GG]	2G	1B	2r	2d
.	2G	.	2d	2d
2r	2D	1A	2d	2.f
2D	2D	.	2d	.
.	.	.	.	4g
=63	=63	=63	=63	=63
2D	2.F	2r	2A	0a
2D	.	2A	2A	.
.	4G	.	.	.
2AA	4A	2A	2.c	.
.	4B	.	.	.
2AA	[2c	2A	.	.
.	.	.	4d	.
=64	=64	=64	=64	=64
2.C	2c]	2E	0e	0r
.	4B	2E	.	.
4D	4A	.	.	.
1E	2c	2.G	.	.
.	[2B	.	.	.
.	.	4A	.	.
=65	=65	=65	=65	=65
2D	4B]	2B	0r	1r
.	4A	.	.	.
2C	1A	2c	.	.
1BB	.	1d	.	2r
.	2G#i	.	.	2b
=66	=66	=66	=66	=66
1AA	1A	0r	2r	2cc
.	.	.	2e	2cc
1r	1r	.	2f	1a
.	.	.	2f	.
=67	=67	=67	=67	=67
1r	0r	2r	1d	1b
.	.	2B	.	.
2r	.	2c	1e	2r
2E	.	2c	.	2g
=68	=68	=68	=68	=68
2F	0r	1A	2r	2a
2F	.	.	2c	2a
1D	.	4B-X	2d	1f
.	.	4A	.	.
.	.	[2A	2d	.
=69	=69	=69	=69	=69
1E	2r	2A]	1B	0e
.	2B	2G	.	.
2r	2c	4A	1A	.
.	.	4G	.	.
2AA	2c	4F	.	.
.	.	4E	.	.
=70	=70	=70	=70	=70
2D	1A	2.F	2r	0r
2D	.	.	2d	.
.	.	4E	.	.
1GG	1B	2D	2d	.
.	.	[2G	2d	.
=71	=71	=71	=71	=71
1AA	0r	2G]	2c	1r
.	.	2F#i	2c	.
1GG	.	2G	4B	2r
.	.	.	4A	.
.	.	2D	4G	2g
.	.	.	4F	.
=72	=72	=72	=72	=72
0r	2r	2E	4G	2g
.	.	.	4A	.
.	2d	2G	4B	2g
.	.	.	4c	.
.	2d	1D	2d	2f
.	2d	.	2A	2f
=73	=73	=73	=73	=73
0r	2c	0r	2A	2e
.	2c	.	1e	2.g
.	1B	.	.	.
.	.	.	.	4f
.	.	.	[2d	4e
.	.	.	.	4d
=74	=74	=74	=74	=74
0r	1r	2r	4d]	1e
.	.	.	4c	.
.	.	2G	4B	.
.	.	.	4A	.
.	2r	2G	2B	1d
.	2d	2G	2B	.
=75	=75	=75	=75	=75
0r	2d	2F	1A	2r
.	2d	2F	.	1a
.	2c	1E	2r	.
.	2B	.	[2e	2g
=76	=76	=76	=76	=76
0r	1A	2r	2e]	1cc
.	.	1A	2c	.
.	1r	.	1d	1b
.	.	2G	.	.
=77	=77	=77	=77	=77
0r	2r	1c	1e	1a
.	1A	.	.	.
.	.	1B	2f	1dd
.	2G	.	2g	.
=78	=78	=78	=78	=78
0r	1.c	2A	2e	2.cc
.	.	1F	2.f	.
.	.	.	.	4b
.	.	.	.	2a
.	.	.	4e	.
.	2B	2G	4d	[2g
.	.	.	4c	.
=79	=79	=79	=79	=79
1r	1A	1D	1d	4g]
.	.	.	.	4f#i
.	.	.	.	4f#i
.	.	.	.	8eL
.	.	.	.	8f#iJ
[1GG	1G	2r	2B	[1g
.	.	2D	[2c	.
=80	=80	=80	=80	=80
1GG]	0G	1.G	4c]	1g]
.	.	.	4B	.
.	.	.	4B	.
.	.	.	8AL	.
.	.	.	8BJ	.
[1C	.	.	1c	[1g
.	.	2F	.	.
=81	=81	=81	=81	=81
2C]	1.c	0E	1r	1g]
2BB	.	.	.	.
[1AA	.	.	[1c	[1cc
.	2B	.	.	.
=82	=82	=82	=82	=82
1AA]	0A	1.A	1c]	2cc]
.	.	.	.	2b
[1D	.	.	[1f	[1a
.	.	2A	.	.
=83	=83	=83	=83	=83
2D]	1.d	[0D	2f]	1a]
2D	.	.	2e	.
2GG	.	.	[1d	[1dd
[2G	4c	.	.	.
.	4B	.	.	.
=84	=84	=84	=84	=84
2G]	2A	1D]	1d]	2dd]
2F	2A	.	.	2dd
[1E	2B	2r	[1g	1g
.	[2c	[2C	.	.
=85	=85	=85	=85	=85
2E]	4c]	2C]	2g]	1r
.	4B	.	.	.
2D	2.A	2D	2f	.
2.C	.	[1E	2.e	[1cc
.	4G	.	.	.
.	[2G	.	.	.
4BB	.	.	4d	.
=86	=86	=86	=86	=86
1AA	2G]	2E]	2c	2cc]
.	2F#i	4D	2A	2cc
.	.	4C	.	.
[1GG	[1G	[1D	1B	[1b
=87	=87	=87	=87	=87
1GG]	1G]	1D]	2r	1b]
.	.	.	2d	.
1r	1r	1r	1g	2r
.	.	.	.	2g
=88	=88	=88	=88	=88
0r	2r	0r	2d	1dd
.	2G	.	2d	.
.	1d	.	2.f	2a
.	.	.	.	2a
.	.	.	8eL	.
.	.	.	8dJ	.
=89	=89	=89	=89	=89
0r	2A	0r	2.c	2.cc
.	2A	.	.	.
.	.	.	4d	8bL
.	.	.	.	8aJ
.	2.c	.	4e	2.g
.	.	.	4f	.
.	.	.	[2g	.
.	8BL	.	.	4a
.	8AJ	.	.	.
=90	=90	=90	=90	=90
0r	2.G	0r	4g]	4b
.	.	.	4f	4cc
.	.	.	2.d	2.dd
.	4A	.	.	.
.	4B	.	.	.
.	4c	.	4e	4cc
.	[2d	.	[2f	4b
.	.	.	.	4a
=91	=91	=91	=91	=91
1r	4d]	2r	4f]	2b
.	4c	.	4e	.
.	4B	2D	4d	1a
.	4A	.	4c	.
2r	1B	1G	[1d	.
2GG	.	.	.	2g
=92	=92	=92	=92	=92
1D	2r	2D	1d]	0a
.	2A	2F	.	.
2AA	1c	2E	[1e	.
2AA	.	2E	.	.
=93	=93	=93	=93	=93
2.C	2.G	4E	1e]	1r
.	.	4D	.	.
.	.	4E	.	.
8BBL	4A	4F	.	.
8AAJ	.	.	.	.
2.GG	4B	2.G	1r	2r
.	4c	.	.	.
.	[2d	.	.	2g
4AA	.	4F	.	.
=94	=94	=94	=94	=94
4BB	4d]	4D	0r	1dd
4C	4c	4E	.	.
2.D	4B	2.F	.	.
.	4A	.	.	.
.	2B	.	.	1dd
4C	.	4E	.	.
4BB	2A	4D	.	.
4AA	.	4C	.	.
=95	=95	=95	=95	=95
1BB	2A	1D	0r	2dd
.	2G#i	.	.	2dd
[1AA	[1A	[1E	.	2cc
.	.	.	.	2a
=96	=96	=96	=96	=96
1AA]	1A]	1E]	2r	1cc
.	.	.	2c	.
1r	1r	1r	1g	2b
.	.	.	.	[2dd
=97	=97	=97	=97	=97
1r	1G	0r	1g	4dd]
.	.	.	.	4cc
.	.	.	.	4b
.	.	.	.	4a
1GG	2.d	.	2g	1b
.	.	.	2g	.
.	4d	.	.	.
=98	=98	=98	=98	=98
2.D	2d	2r	2f	[0a
.	2d	2D	2d	.
4D	.	.	.	.
2D	2A	2.A	1f	.
2D	2A	.	.	.
.	.	4A	.	.
=99	=99	=99	=99	=99
2AA	1c	2A	0e	1a]
2AA	.	2A	.	.
1C	1G	2E	.	1r
.	.	2E	.	.
=100	=100	=100	=100	=100
1GG	1B	1G	1r	1.d
[1D	1A	2.F	[1d	.
.	.	.	.	2d
.	.	4G	.	.
=101	=101	=101	=101	=101
2D]	2r	4A	2d]	2f
.	.	4B	.	.
2C	1A	2c	2e	1e
1D	.	2.F	1f	.
.	2B	.	.	2d
.	.	4G	.	.
=102	=102	=102	=102	=102
2AA	1c	2A	1e	1e
2C	.	1G	.	.
2.GG	1B	.	1r	1r
.	.	4F	.	.
4AA	.	4E	.	.
=103	=103	=103	=103	=103
4BB	0r	4D	0r	2r
4C	.	4E	.	.
2.D	.	4F	.	1a
.	.	4G	.	.
.	.	4A	.	.
4C	.	4D	.	.
2BB	.	[2G	.	2b
=104	=104	=104	=104	=104
1AA	0r	4G]	1r	1cc
.	.	4F#i	.	.
.	.	4F#i	.	.
.	.	8EL	.	.
.	.	8F#iJ	.	.
1GG	.	1G	[1d	1b
=105	=105	=105	=105	=105
0D	0r	1A	2d]	1.a
.	.	.	2e	.
.	.	2F	1f	.
.	.	2D	.	2b
=106	=106	=106	=106	=106
1.AA	1.A	[0E	[0e	1.cc
2GG	2B	.	.	[2b
=107	=107	=107	=107	=107
1AA	1c	1E]	0e]	4b]
.	.	.	.	4a
.	.	.	.	1a
1E	1B	1r	.	.
.	.	.	.	2g#i
=108	=108	=108	=108	=108
2.F	0A	1.D	2.d	2.a
4E	.	.	4c	4g
2D	.	.	4A	2f
.	.	.	4B	.
2C	.	2E	2c	[2e
=109	=109	=109	=109	=109
1D	1r	1F	2.A	2e]
.	.	.	.	2d
.	.	.	4B	.
[1AA	[1A	[1El	[1c	[1el
=110	=110	=110	=110	=110
2AA]	2A]	0E_	2c]	0e_
2GG	2B	.	2B	.
1AA	1c	.	1A	.
=111	=111	=111	=111	=111
00EEl	00Bl	00E]	00G#Xl	00e]
==	==	==	==	==
*-	*-	*-	*-	*-
!!!system-decoration: [*]
!!!RDF**kern: i = editorial accidental
!!!RDF**kern: l = terminal long
!!!ENC: Benjamin Ory
!!!END: 2024/12/19
!!!EED: Benjamin Ory
!!!EEV: 2025/02/20
!!!YEC: Copyright 2025 Benjamin Ory, All Rights Reserved
!!!ONB: Translated from MusicXML on 2025/02/20
